X: 57
T:The Ornithologist's Retreat
% Nottingham Music Database
S:By Hugh Barwell, via PR
M:4/4
L:1/4
K:D
"D"DF/2A/2 dc/2d/2|"G"Bd GB|"A7"Ac/2e/2 ag|"D"fa dz|
"B7"^DF/2A/2 =cB/2A/2|"Em"Be GB|"A7"cA gf/2e/2|"D"df dz::
"Bb"_B/2=c/2d ^cd|"F"=f=c Ac|"Gm"_B/2=c/2d "C7"G/2A/2B|"F"A=c =F2|\
"Bb"_B/2=c/2d ^cd|"D"fd B_B|
"A7"Ag fe|"D"d/2e/2f/2e/2 "D7"d/2=c/2B/2A/2|"G7"B/2c/2d cd|"D"Ad AF|\
"Em"GA/2B/2 "A7"AG|
"D"FA FD|"G"B/2c/2d cd|"D"af "Bm"dA|"Em"Bd "A7"e/2d/2e|"D"d2 d2:|<end>
<start>
